!!!OTL: TRAURIGES MAEDCHEN VERZAGE NUR NICHT
!!!ARE: Europa, Mitteleuropa, Deutschland, Hessen, Wetterau, Gambach
!!!SCT: E0711
!!!YEM: Copyright 1995, estate of Helmut Schaffrath.
**kern
*ICvox
*Ivox
*M3/8
*k[f#c#g#]
*A:
{8e
=1
8e
8e
8g#
=2
8b
8b}
{8e
=3
8e
8a
8b
=4
4cc#}
{8e
=5
8e
8g#
8b
=6
8ff#
8.ee}
{16cc#
=7
8dd
8dd
8b
=8
4a}
{8e
=9
8e
8g#
8b
=10
8ff#
8.ee}
{16cc#
=11
8dd
8dd
8b
=12
4a}
==
!!!AGN: Liebes - Lied, Leid, Klage
!!!ONB: ESAC (Essen Associative Code) Database: ERK2
!!!AMT: simple triple
!!!AIN: vox
!!!EED: Helmut Schaffrath
!!!EEV: 1.0
*-
